Yaru++/status/16/network-cellular-edge.svg

<svg height="16" width="16" xmlns="http://www.w3.org/2000/svg">
  <path d="m2.713 2c-1.058-.013-1.768.224-2.133.662-.383.456-.58 1.204-.58 2.244v6.188c0 1.04.197 1.788.58 2.244.365.438 1.075.662 2.133.662h10.574c1.058 0 1.77-.224 2.135-.662.383-.456.578-1.204.578-2.244v-6.188c0-1.04-.195-1.788-.578-2.244-.365-.438-1.077-.662-2.135-.662zm2.996 2.766h4.367v1.222h-2.912v1.27h2.586v1.195h-2.586v1.559h3.127v1.222h-4.582z" fill="#808080"/>
</svg>

<svg height="16" width="16" xmlns="http://www.w3.org/2000/svg">
    <path d="M2.713 2C1.655 1.987.945 2.224.58 2.662.197 3.118 0 3.866 0 4.906v6.188c0 1.04.197 1.788.58 2.244.365.438 1.075.662 2.133.662h10.574c1.058 0 1.77-.224 2.135-.662.383-.456.578-1.204.578-2.244V4.906c0-1.04-.195-1.788-.578-2.244C15.057 2.224 14.345 2 13.287 2zm2.996 2.766h4.367v1.222H7.164v1.27H9.75v1.195H7.164v1.559h3.127v1.222H5.709z" style="line-height:125%;-inkscape-font-specification:Ubuntu;text-align:center" font-weight="400" font-size="15" font-family="Ubuntu" letter-spacing="0" word-spacing="0" text-anchor="middle" fill="gray"/>
</svg>
